X:30
T:Unnamed hornpipe (Eng)
S:irtrad-l, L. LaVerne, 11/98
M:4/4
L:1/8
S:David Kidd
R:Hornpipe
P:AABB
N:The tune, according to my source, is not Irish but rather a Geordie
N:tune. I thought I'd ask anyway in case someone knew it. I also put
N:it in hornpipe rhythm to get the right lilt, but I suspect it may be
N:a reel.  Fiddlers please note: this one is a *great* bowing exercise
Z:Lorna LaVerne
K:A
(3EFG |
ABcd eAGA | fAgA aAGA | FAEA DACA | BcdB AGFE |
ABcd eAGA | fAgA aAGA | FAEA DACA | BdBG A2(3EFG |
ABcd eAGA | fAgA aAGA | FAEA DACA | BcdB AGFE |
ABcd eAGA | fAgA aAGA | FAEA DACA | BdBG A2A2 |
|:eAGA fAGA | fgag f=f^fc | dcdc B_B=Bc | dc(3dcB AGFE |
ABcd eAGA | fAgA aAGA | FAEA DACA | BdBG A2A2:|
